X:1
T:Bell Carol
T:Traditional Ukrainian Carol
%%score { 1 | 2 } 3 4
L:1/8
Q:1/4=250
M:3/4
K:G
V:1 treble nm="Keyboard Synthesizer"
V:2 bass 
V:3 bass nm="Violoncello" snm="Vc."
V:4 treble nm="Violin" snm="Vln."
V:1
!p!"^With motion" (!3!g2 f)g e2 | (g2 f)g e2 | (g2 f)g e2 | (g2 f)g e2 |: (g2 f)g e2 | (g2 f)g e2 | %6
 (g2 f)g e2 | (g2 f)g e2 |!mp! (g2 f)g e2 | (g2 f)g e2 | (g2 f)g e2 | (g2 f)g e2 | (G2 F)G E2 | %13
 (G2 F)G E2 | (G2 F)G E2 | (G2 F)G E2 | (!3!B2 A)B G2 | (B2 A)B G2 |!<(! (B2 A)B G2!<)! | %19
 (B2 A)B G2 |!f! ([Ge]2 e)e dc | (!1!!3![GB]2 BB AG) | (A2 AA BA) | (!1!G2 !3!FG E2) | %24
 z2 z z (!2!F!3!G | !4!!2![FA]!5!!3![GB] !4!!2![FA]2 !3!!1![EG]2) | z z z z (FG | %27
 [FA][GB] [FA]2 [EG]2) | (G2 FG E2) | (!3!G2 FG E2) | (G2 FG E2) | (G2 FG E2) | (G2 FG E2) | %33
 (G2 FG E2) | (G2 FG E2) | (G2 FG E2) |!f! (e2 ee dc) | (B2 BB AG) | (A2 AA BA) | (G2 FG E2) | %40
 z z z z (FG | AB A2 G2) | z z z z (FG | [FA][GB] [FA]2 [EG]2) | (g2 fg e2) | (g2 fg e2) | %46
 (g2 fg e2) | (g2 fg e2) | (G2 FG E2) | (G2 FG E2) | (G2 FG E2) | (G2 FG !fermata!E2) :| %52
!p![Q:1/4=44]"_Very slow" !3!!5![GB]2 [FA]!fermata![GB] !fermata![G,E]2 | %53
!8va(! !fermata!!1!!2!!5![gbe']6!8va)! |] %54
V:2
!ped! z6 | z6 | z6 | z6!ped-up! |:[K:treble]!ped! !>!!1!e4 z2 | !>!d6 | !>!!1!c6 | !>!B6 | %8
 !>!!3!!1![Ac]6!ped-up! |!ped! !>![GB]6 | !>![Ac]6 | !5!!2![EB]6!ped-up! |[K:bass] !>![C,G,]6 | %13
 !>![E,B,]6 | !>![A,C]6 | !>![E,B,]6 | !>![E,B,]6 | !>![E,^C]6 | !>![E,D]2 !>![E,C]2 !>![E,B,]2 | %19
 !>![E,D]2 !>![E,C]2 !>![E,B,]2 | !>![E,B,]6 | !>![E,B,]6 | !>![E,C]6 | !>![E,B,]6 | %24
!ped! (!4!B,^C ^DE) z2 | z6!ped-up! |!ped! (B,^C ^DE) z2 | z6!ped-up! |!mf! !>!E,6 | !>!D,6 | %30
!>(! !>!!1!C,6!>)! | !>!B,,6 |!mp! !>![E,,B,,]6 | !>![E,B,]6 | !>![E,,B,,]6 | !>![E,B,]6 | %36
 !>![E,B,]6 | !>![E,B,]6 | !>![E,C]6 | !>![E,B,]6 |!ped! (B,^C ^DE) z2 | z6!ped-up! | %42
!ped! (B,^C ^DE) z2 | z6!ped-up! |[K:treble]!mf! !>!e4 z2 | !>!d6 |!>(! !>!c6!>)! | !>!B6 | %48
[K:bass]!mp! !>![E,,B,,]6 | !>![E,B,]6 |!>(! !>![E,,B,,]6!>)! | !fermata![E,B,]6 :| %52
 z2 z2 !fermata![E,,B,,]2 |[K:treble]!mf! !fermata!!5!!2![FB]6 |] %54
V:3
 z6 | z6 | z6 | z6 |:!pp! G,6 | F,6 | E,6 | D,6 | E,6 | D,6 | E,6 | D,6 | G,6 | B,6 | C6 | B,6 | %16
 B,6 | ^C6 |!mp!!<(! D2 C2 B,2!<)! | D2 C2 B,2 |!mf! B,2 B,B, B,B, | B,2 B,B, B,B, | C2 CC CC | %23
 B,2 B,B, B,2 | B,2 B,2 B,2 | C2 C2 C2 | B,2 B,2 B,2 | B,2 B,2 B,2 | E,6 | D,6 | C,6 | B,,6 | %32
!p! [E,,B,,]6 | [E,B,]6 | [E,,B,,]6 | [E,B,]6 | [E,B,]6 | [E,B,]6 | [E,C]6 | [E,B,]6 | %40
 B,^C ^DE- z2 | E6 | B,^C ^DE- z2 | E6 | G,6 | F,6 | E,6 | D,6 | [E,,B,,]6 | [E,B,]6 | [E,,B,,]6 | %51
 [E,B,]6 :| z6 | E,,6 |] %54
V:4
!pp! g2 ^fg e2 | g2 ^fg e2 | g2 ^fg e2 | g2 ^fg e2 |: (g2 f)g e2 | ((g2 f))g e2 | (g2 f)g e2 | %7
 (g2 f)g e2 | (g2 f)g e2 | (g2 f)g e2 | (g2 f)g e2 | (g2 f)g e2 | (G2 F)G E2 | (G2 F)G E2 | %14
 (G2 F)G E2 | (G2 F)G E2 | (B2 A)B G2 | (B2 A)B G2 | (B2 A)B G2 | (B2 A)B G2 |!f! (e2 e)e dc | %21
 (B2 BB AG) | (A2 AA BA) | (G2 FG E2) | (!4!B,^C ^DE) FG | AB A2 G2 | (((!4!B,^C ^DE))) FG | %27
 AB A2 G2 | e6 | d6 | c6 | B6 | e6 | d6 | c6 | B6 |!f! (e2 ee dc) | (B2 BB AG) | (A2 AA BA) | %39
 (G2 FG E2) | (!4!B,^C ^DE) FG | AB A2 G2 | (!4!B,^C ^DE) FG | AB A2 G2 | (g2 fg e2) | (g2 fg e2) | %46
 (g2 fg e2) | (g2 fg e2) | (G2 FG E2) | (G2 FG E2) | (G2 FG E2) | (G2 FG E2) :| %52
!p! (!5!B2 A!fermata!B !fermata!E2) | !fermata!e6 |] %54

